src/assets/spades_2.svg

<?xml version="1.0" encoding="UTF-8"?>
<svg xmlns="http://www.w3.org/2000/svg" xmlns:xlink="http://www.w3.org/1999/xlink" width="99px" height="140px" viewBox="0 0 99 140" version="1.1">
<g id="surface1">
<path style="fill-rule:nonzero;fill:rgb(100%,100%,100%);fill-opacity:1;stroke-width:0.755906;stroke-linecap:butt;stroke-linejoin:miter;stroke:rgb(50.196078%,50.196078%,50.196078%);stroke-opacity:1;stroke-miterlimit:4;" d="M 9.297585 719.743103 L 224.702415 719.743103 C 229.632812 719.743103 233.621449 723.747651 233.621449 728.681329 L 233.621449 1043.042991 C 233.621449 1047.976669 229.632812 1051.981217 224.702415 1051.981217 L 9.297585 1051.981217 C 4.367188 1051.981217 0.378551 1047.976669 0.378551 1043.042991 L 0.378551 728.681329 C 0.378551 723.747651 4.367188 719.743103 9.297585 719.743103 Z M 9.297585 719.743103 " transform="matrix(0.423077,0,0,0.42042,0,-302.434542)"/>
<path style=" stroke:none;fill-rule:nonzero;fill:rgb(0%,0%,0%);fill-opacity:1;" d="M 5.457031 25.789062 C 5.457031 25.554688 5.445312 25.386719 5.445312 25.152344 C 5.929688 25.152344 6.457031 25.152344 6.945312 25.152344 C 6.945312 24.597656 6.945312 24.558594 6.945312 24 C 5.996094 24.03125 4.96875 24.101562 4.078125 23.710938 C 3.390625 23.335938 3.199219 22.464844 3.339844 21.746094 C 3.457031 20.933594 3.910156 20.214844 4.503906 19.660156 C 5.273438 18.84375 6.253906 18.289062 7.277344 17.847656 C 8.324219 18.296875 9.328125 18.867188 10.105469 19.707031 C 10.808594 20.363281 11.277344 21.289062 11.261719 22.261719 C 11.277344 22.960938 10.839844 23.699219 10.121094 23.851562 C 9.316406 24.074219 8.5 24.035156 7.671875 24 C 7.671875 24.558594 7.671875 24.597656 7.671875 25.152344 C 8.160156 25.152344 8.605469 25.152344 9.09375 25.152344 C 9.09375 25.386719 9.105469 25.554688 9.105469 25.789062 C 7.992188 25.78125 6.660156 25.78125 5.457031 25.789062 Z M 5.457031 25.789062 "/>
<path style=" stroke:none;fill-rule:nonzero;fill:rgb(0%,0%,0%);fill-opacity:1;" d="M 89.898438 114.210938 C 89.898438 114.445312 89.886719 114.613281 89.886719 114.847656 C 90.371094 114.847656 90.898438 114.847656 91.386719 114.847656 C 91.386719 115.402344 91.386719 115.441406 91.386719 116 C 90.4375 115.96875 89.410156 115.898438 88.519531 116.289062 C 87.832031 116.664062 87.640625 117.535156 87.78125 118.253906 C 87.898438 119.066406 88.351562 119.785156 88.945312 120.339844 C 89.714844 121.15625 90.695312 121.710938 91.71875 122.152344 C 92.765625 121.703125 93.769531 121.132812 94.546875 120.292969 C 95.25 119.636719 95.71875 118.710938 95.703125 117.738281 C 95.71875 117.039062 95.28125 116.300781 94.5625 116.148438 C 93.757812 115.925781 92.941406 115.964844 92.113281 116 C 92.113281 115.441406 92.113281 115.402344 92.113281 114.847656 C 92.601562 114.847656 93.046875 114.847656 93.535156 114.847656 C 93.535156 114.613281 93.546875 114.445312 93.546875 114.210938 C 92.433594 114.21875 91.101562 114.21875 89.898438 114.210938 Z M 89.898438 114.210938 "/>
<path style=" stroke:none;fill-rule:nonzero;fill:rgb(0%,0%,0%);fill-opacity:1;" d="M 44.035156 39.820312 C 44.035156 39.117188 43.996094 38.613281 43.996094 37.910156 C 45.453125 37.910156 47.035156 37.910156 48.492188 37.910156 C 48.492188 36.242188 48.492188 36.125 48.492188 34.457031 C 45.644531 34.550781 42.5625 34.757812 39.894531 33.589844 C 37.832031 32.464844 37.261719 29.84375 37.679688 27.691406 C 38.035156 25.257812 39.394531 23.101562 41.167969 21.4375 C 43.476562 18.984375 46.421875 17.328125 49.496094 15.992188 C 52.632812 17.347656 55.644531 19.058594 57.980469 21.578125 C 60.089844 23.546875 61.492188 26.324219 61.449219 29.234375 C 61.492188 31.335938 60.183594 33.554688 58.023438 34.015625 C 55.609375 34.679688 53.164062 34.5625 50.683594 34.457031 C 50.683594 36.125 50.683594 36.242188 50.683594 37.910156 C 52.140625 37.910156 53.480469 37.910156 54.9375 37.910156 C 54.9375 38.613281 54.976562 39.117188 54.976562 39.820312 C 51.636719 39.796875 47.640625 39.796875 44.035156 39.820312 Z M 44.035156 39.820312 "/>
<path style=" stroke:none;fill-rule:nonzero;fill:rgb(0%,0%,0%);fill-opacity:1;" d="M 44.035156 100.179688 C 44.035156 100.882812 43.996094 101.386719 43.996094 102.089844 C 45.453125 102.089844 47.035156 102.089844 48.492188 102.089844 C 48.492188 103.757812 48.492188 103.875 48.492188 105.542969 C 45.644531 105.449219 42.5625 105.242188 39.894531 106.410156 C 37.832031 107.535156 37.261719 110.15625 37.679688 112.308594 C 38.035156 114.742188 39.394531 116.898438 41.167969 118.5625 C 43.476562 121.015625 46.421875 122.671875 49.496094 124.007812 C 52.632812 122.652344 55.644531 120.941406 57.980469 118.421875 C 60.089844 116.453125 61.492188 113.675781 61.449219 110.765625 C 61.492188 108.664062 60.183594 106.445312 58.023438 105.984375 C 55.609375 105.320312 53.164062 105.4375 50.683594 105.542969 C 50.683594 103.875 50.683594 103.757812 50.683594 102.089844 C 52.140625 102.089844 53.480469 102.089844 54.9375 102.089844 C 54.9375 101.386719 54.976562 100.882812 54.976562 100.179688 C 51.636719 100.203125 47.640625 100.203125 44.035156 100.179688 Z M 44.035156 100.179688 "/>
<path style=" stroke:none;fill-rule:nonzero;fill:rgb(0%,0%,0%);fill-opacity:1;" d="M 11.207031 12.777344 L 10.910156 15.199219 L 3.296875 15.199219 C 3.414062 13.808594 3.957031 12.582031 4.921875 11.519531 L 7.507812 9.246094 C 8.40625 8.445312 8.855469 7.640625 8.855469 6.835938 C 8.855469 6.296875 8.707031 5.867188 8.40625 5.550781 C 8.117188 5.226562 7.710938 5.0625 7.195312 5.0625 C 6.601562 5.0625 6.15625 5.230469 5.863281 5.558594 C 5.671875 5.777344 5.527344 6.113281 5.425781 6.570312 C 5.324219 7.054688 5.246094 7.332031 5.1875 7.410156 C 5.101562 7.4375 5.003906 7.453125 4.890625 7.453125 L 3.886719 7.453125 C 3.769531 7.453125 3.667969 7.425781 3.582031 7.378906 C 3.546875 7.261719 3.527344 7.132812 3.527344 6.992188 C 3.527344 5.84375 3.890625 4.933594 4.621094 4.257812 C 5.316406 3.609375 6.222656 3.285156 7.339844 3.285156 C 8.375 3.285156 9.222656 3.570312 9.882812 4.140625 C 10.585938 4.746094 10.933594 5.574219 10.933594 6.628906 C 10.933594 7.664062 10.546875 8.617188 9.769531 9.476562 C 9.5 9.785156 8.730469 10.441406 7.457031 11.445312 C 6.535156 12.1875 5.964844 12.851562 5.753906 13.445312 L 9.46875 13.445312 L 9.53125 12.703125 C 9.589844 12.441406 9.746094 12.308594 10.003906 12.308594 L 10.800781 12.308594 C 11.109375 12.308594 11.242188 12.464844 11.207031 12.777344 Z M 11.207031 12.777344 "/>
<path style=" stroke:none;fill-rule:nonzero;fill:rgb(0%,0%,0%);fill-opacity:1;" d="M 87.792969 127.222656 L 88.089844 124.800781 L 95.703125 124.800781 C 95.585938 126.191406 95.042969 127.417969 94.078125 128.480469 L 91.492188 130.753906 C 90.59375 131.554688 90.144531 132.359375 90.144531 133.164062 C 90.144531 133.703125 90.292969 134.132812 90.59375 134.449219 C 90.886719 134.773438 91.289062 134.9375 91.804688 134.9375 C 92.398438 134.9375 92.84375 134.769531 93.136719 134.441406 C 93.328125 134.222656 93.472656 133.886719 93.574219 133.429688 C 93.675781 132.945312 93.753906 132.667969 93.8125 132.589844 C 93.898438 132.5625 93.996094 132.546875 94.109375 132.546875 L 95.113281 132.546875 C 95.230469 132.546875 95.332031 132.574219 95.417969 132.621094 C 95.453125 132.738281 95.472656 132.867188 95.472656 133.007812 C 95.472656 134.15625 95.109375 135.066406 94.378906 135.742188 C 93.683594 136.390625 92.777344 136.714844 91.660156 136.714844 C 90.625 136.714844 89.777344 136.429688 89.117188 135.859375 C 88.414062 135.253906 88.066406 134.425781 88.066406 133.371094 C 88.066406 132.335938 88.453125 131.382812 89.230469 130.523438 C 89.5 130.214844 90.269531 129.558594 91.542969 128.554688 C 92.464844 127.8125 93.035156 127.148438 93.246094 126.554688 L 89.53125 126.554688 L 89.46875 127.296875 C 89.410156 127.558594 89.253906 127.691406 88.996094 127.691406 L 88.199219 127.691406 C 87.890625 127.691406 87.757812 127.535156 87.792969 127.222656 Z M 87.792969 127.222656 "/>
</g>
</svg>

<svg xmlns="http://www.w3.org/2000/svg" width="99" height="140"><path d="M9.298 719.743h215.404c4.93 0 8.92 4.005 8.92 8.938v314.362c0 4.934-3.99 8.938-8.92 8.938H9.298c-4.93 0-8.92-4.004-8.92-8.938V728.681c0-4.933 3.99-8.938 8.92-8.938Zm0 0" style="fill-rule:nonzero;fill:#fff;fill-opacity:1;stroke-width:.755906;stroke-linecap:butt;stroke-linejoin:miter;stroke:gray;stroke-opacity:1;stroke-miterlimit:4" transform="matrix(.42308 0 0 .42042 0 -302.435)"/><path d="M5.457 25.79c0-.235-.012-.403-.012-.638h1.5V24c-.949.031-1.976.102-2.867-.29-.687-.374-.879-1.245-.738-1.964.117-.812.57-1.531 1.164-2.086.77-.816 1.75-1.37 2.773-1.812 1.047.449 2.051 1.02 2.828 1.859.704.656 1.172 1.582 1.157 2.555.015.699-.422 1.437-1.14 1.59-.806.222-1.622.183-2.45.148v1.152h1.422c0 .235.011.403.011.637a283.894 283.894 0 0 0-3.648 0ZM89.898 114.21c0 .235-.011.403-.011.638h1.5V116c-.95-.031-1.977-.102-2.867.29-.688.374-.88 1.245-.739 1.964.117.812.57 1.531 1.164 2.086.77.816 1.75 1.37 2.774 1.812 1.047-.449 2.05-1.02 2.828-1.859.703-.656 1.172-1.582 1.156-2.555.016-.699-.422-1.437-1.14-1.59-.805-.222-1.622-.183-2.45-.148v-1.152h1.422c0-.235.012-.403.012-.637-1.113.008-2.445.008-3.649 0ZM44.035 39.82c0-.703-.039-1.207-.039-1.91h4.496v-3.453c-2.847.094-5.93.3-8.597-.867-2.063-1.125-2.633-3.746-2.215-5.899.355-2.433 1.715-4.59 3.488-6.253 2.309-2.454 5.254-4.11 8.328-5.446 3.137 1.356 6.149 3.067 8.484 5.586 2.11 1.969 3.512 4.746 3.47 7.656.042 2.102-1.266 4.32-3.427 4.782-2.414.664-4.859.547-7.34.441v3.453h4.255c0 .703.039 1.207.039 1.91-3.34-.023-7.336-.023-10.942 0ZM44.035 100.18c0 .703-.039 1.207-.039 1.91h4.496v3.453c-2.847-.094-5.93-.3-8.597.867-2.063 1.125-2.633 3.746-2.215 5.899.355 2.433 1.715 4.59 3.488 6.254 2.309 2.453 5.254 4.109 8.328 5.445 3.137-1.356 6.149-3.067 8.484-5.586 2.11-1.969 3.512-4.746 3.47-7.656.042-2.102-1.266-4.32-3.427-4.782-2.414-.664-4.859-.546-7.34-.441v-3.453h4.255c0-.703.039-1.207.039-1.91-3.34.023-7.336.023-10.942 0ZM11.207 12.777 10.91 15.2H3.297c.117-1.39.66-2.617 1.625-3.68l2.586-2.273c.898-.8 1.347-1.605 1.347-2.41 0-.54-.148-.969-.449-1.285-.289-.324-.695-.489-1.21-.489-.594 0-1.04.168-1.333.497-.191.218-.336.554-.437 1.011-.102.485-.18.762-.239.84a.97.97 0 0 1-.296.043H3.887a.628.628 0 0 1-.305-.074 1.34 1.34 0 0 1-.055-.387c0-1.148.364-2.058 1.094-2.734.695-.649 1.602-.973 2.719-.973 1.035 0 1.883.285 2.543.856.703.605 1.05 1.433 1.05 2.488 0 1.035-.386 1.988-1.163 2.848-.27.308-1.04.964-2.313 1.968-.922.742-1.492 1.407-1.703 2h3.715l.062-.742c.059-.262.215-.394.473-.394h.797c.308 0 .441.156.406.468ZM87.793 127.223l.297-2.422h7.613c-.117 1.39-.66 2.617-1.625 3.68l-2.586 2.273c-.898.8-1.347 1.605-1.347 2.41 0 .54.148.969.449 1.285.293.324.695.488 1.21.488.594 0 1.04-.167 1.333-.496.191-.218.336-.554.437-1.011.102-.485.18-.762.239-.84a.97.97 0 0 1 .296-.043h1.004c.117 0 .219.027.305.074.035.117.055.246.055.387 0 1.148-.364 2.058-1.094 2.734-.695.649-1.602.973-2.719.973-1.035 0-1.883-.285-2.543-.856-.703-.605-1.05-1.433-1.05-2.488 0-1.035.386-1.988 1.163-2.848.27-.308 1.04-.964 2.313-1.968.922-.743 1.492-1.407 1.703-2h-3.715l-.062.742c-.059.262-.215.394-.473.394H88.2c-.308 0-.441-.156-.406-.468Zm0 0" style="stroke:none;fill-rule:nonzero;fill:#000;fill-opacity:1"/></svg>
